X: 10613
T: DEMOCRATIC HORNPIPE
C:
%R: reel
B: Elias Howe "The Musician's Companion" Part 1 1842 p.61 #3
S: http://imslp.org/wiki/The_Musician's_Companion_(Howe,_Elias)
Z: 2015 John Chambers <jc:trillian.mit.edu>
M: 2/4
L: 1/16
K: Bb
% - - - - - - - - - - - - - - - - - - - - - - - - -
G>A |\
BABc dcdf | gfga fabg | fdba fdcd | B2 G2 GFDF |\
G2 G>A BABG | F2 F>G AGFD | GABc dcBA | B2G2G2 :|
|: g2 |\
gfdf gabg | gfdf GFDF | BABc dcde | fcdB AGFD |\
BFdB AFec | BFdB AFec | dfga bagf | d2g2g2 :|
% - - - - - - - - - - - - - - - - - - - - - - - - -


